packages/foundations/assets/icons/functional/images/audio & video/volume_disabled_14.svg

<svg width="14" height="14" viewBox="0 0 14 14" fill="none" xmlns="http://www.w3.org/2000/svg">
<g clip-path="url(#clip0_184_405)">
<path fill-rule="evenodd" clip-rule="evenodd" d="M11.18 2.09688C11.507 2.09688 11.876 2.31589 11.876 2.77988C11.876 2.92989 11.836 3.07989 11.739 3.21689L3.31199 11.6849C3.24715 11.7481 3.17029 11.7977 3.08595 11.8306C3.00161 11.8636 2.91152 11.8793 2.82099 11.8769C2.63153 11.8764 2.44976 11.8019 2.31449 11.6692C2.17922 11.5366 2.10117 11.3563 2.09699 11.1669C2.09699 11.0169 2.14599 10.8739 2.26099 10.7569L3.19599 9.79388C2.21899 9.65188 1.39999 8.84289 1.39999 7.72389V6.33088C1.39999 5.20389 2.37899 4.21389 3.36699 4.21389H4.00899L5.93499 2.94389C6.04744 2.86616 6.18033 2.82337 6.31699 2.82088C6.65899 2.82088 6.99999 3.09388 6.99999 3.43588V6.00289L9.48599 3.50289L9.32199 3.32589C9.25075 3.26592 9.19403 3.19058 9.1561 3.10554C9.11817 3.02049 9.10001 2.92796 9.10299 2.83489C9.10299 2.45189 9.41799 2.11089 9.81299 2.11089C10.073 2.11089 10.169 2.19288 10.497 2.52088L10.687 2.30088C10.7489 2.23274 10.8251 2.17912 10.9102 2.14385C10.9952 2.10859 11.087 2.09255 11.179 2.09688H11.18ZM5.60599 4.81488L4.81399 5.36088C4.51599 5.56688 4.36299 5.62089 4.19899 5.62089H3.50199C3.40925 5.62032 3.31734 5.6384 3.23172 5.67406C3.1461 5.70971 3.06852 5.76222 3.00359 5.82845C2.93867 5.89468 2.88772 5.97329 2.85377 6.0596C2.81983 6.14591 2.80358 6.23817 2.80599 6.33088V7.72389C2.80599 8.01789 3.02599 8.40688 3.50199 8.40688H4.19999C4.33999 8.40688 4.37999 8.44488 4.51399 8.48888L5.60699 7.39688L5.60599 4.81488ZM5.87899 11.0709L6.99999 9.95089V10.4969C6.99999 10.9069 6.69999 11.2209 6.27599 11.2209C6.15299 11.2209 6.06999 11.1799 5.87899 11.0709ZM7.98299 8.96689L9.79999 7.17789C9.73199 7.86089 9.37699 8.48888 8.85799 8.95388C8.74037 9.05511 8.5891 9.10862 8.43399 9.10389C8.28399 9.10389 8.18799 9.07689 7.98399 8.96689H7.98299ZM9.10299 11.2069C9.10299 11.0159 9.18499 10.8109 9.33599 10.6749C9.88899 10.2205 10.3401 9.6548 10.6601 9.01457C10.98 8.37434 11.1616 7.67392 11.193 6.95888C11.193 6.57688 11.153 6.33089 11.016 5.93489L12.108 4.85589C12.422 5.51189 12.573 6.23588 12.6 6.95888C12.532 8.81688 11.671 10.5379 10.25 11.7389C10.1341 11.8441 9.98351 11.9029 9.82699 11.9039C9.41699 11.9039 9.10299 11.6039 9.10299 11.2069Z" fill="#1A1C1F"/>
</g>
<defs>
<clipPath id="clip0_184_405">
<rect width="14" height="14" fill="white"/>
</clipPath>
</defs>
</svg>

<svg xmlns="http://www.w3.org/2000/svg" width="14" height="14" fill="none"><g clip-path="url(#a)"><path fill="#1A1C1F" fill-rule="evenodd" d="M11.18 2.097c.327 0 .696.219.696.683 0 .15-.04.3-.137.437l-8.427 8.468a.68.68 0 0 1-.491.192.726.726 0 0 1-.724-.71c0-.15.049-.293.164-.41l.935-.963C2.219 9.652 1.4 8.843 1.4 7.724V6.33c0-1.127.979-2.117 1.967-2.117h.642l1.926-1.27a.7.7 0 0 1 .382-.123c.342 0 .683.273.683.615v2.567l2.486-2.5-.164-.177a.62.62 0 0 1-.219-.491c0-.383.315-.724.71-.724.26 0 .356.082.684.41l.19-.22a.63.63 0 0 1 .492-.204zM5.606 4.815l-.792.546c-.298.206-.451.26-.615.26h-.697a.69.69 0 0 0-.696.71v1.393c0 .294.22.683.696.683H4.2c.14 0 .18.038.314.082l1.093-1.092zm.273 6.256L7 9.95v.546c0 .41-.3.724-.724.724-.123 0-.206-.041-.397-.15m2.104-2.104L9.8 7.177c-.068.684-.423 1.312-.942 1.777a.62.62 0 0 1-.424.15c-.15 0-.246-.027-.45-.137zm1.12 2.24c0-.191.082-.396.233-.532a5.1 5.1 0 0 0 1.857-3.716c0-.382-.04-.628-.177-1.024l1.092-1.08c.314.657.465 1.38.492 2.104-.068 1.858-.929 3.579-2.35 4.78a.64.64 0 0 1-.423.165c-.41 0-.724-.3-.724-.697" clip-rule="evenodd"/></g><defs><clipPath id="a"><path fill="#fff" d="M0 0h14v14H0z"/></clipPath></defs></svg>
